!!!COM: Mozart, Wolfgang Amadeus
!!!OTL: String Quartet No. 4 in C Major
!!!OMD: Andante
!!!OMV: 2
!!!SCT1: K<sup>1</sup> 157
!!!SCA: Chronologisch-thematisches Verzeichnis sämtlicher Tonwerke Wolfgang Amade Mozarts (L. von Köchel; 1862, 2/1905, 3/1937, 1947)
!!!SCT2: K<sup>6</sup> 157
!!!YOR: Breitkopf & Härtel Edition
!!!ENC: Edmund Correia, Jr.
!!!CDT: 1756/1/27/-1791/12/5/
!!!OCY: Österreich
!!!YEC: Copyright (c) 1994, 2000 Center for Computer Assisted Research in the Humanities
!!!YEM: Rights to all derivative editions reserved.
!!!YEM: Refer to licensing agreement for further details.
!!!YEN: United States of America
**kern	**dynam	**kern	**dynam	**kern	**dynam	**kern	**dynam
*I:Violoncello	*I:Violoncello	*I:Viola	*I:Viola	*I:Violino 2	*I:Violino 2	*I:Violino 1	*I:Violino 1
*>[A,A,B,B,C]	*	*>[A,A,B,B,C]	*	*>[A,A,B,B,C]	*	*>[A,A,B,B,C]	*
*>A	*	*>A	*	*>A	*	*>A	*
*clefF4	*	*clefC3	*	*clefG2	*	*clefG2	*
*k[b-e-a-]	*	*k[b-e-a-]	*	*k[b-e-a-]	*	*k[b-e-a-]	*
*c:	*	*c:	*	*c:	*	*c:	*
*M3/8	*	*M3/8	*	*M3/8	*	*M3/8	*
! Andante	!	! Andante	!	! Andante	!	! Andante	!
4.r	.	4C/	p	16r	.	8r	.
.	.	.	.	(16e-/LL	p	.	.
.	.	.	.	16g/	.	8gg'\L	p
.	.	.	.	16e-/	.	.	.
.	.	8r	.	16g/	.	8gg'\J	.
.	.	.	.	16e-/JJ)	.	.	.
=2	=2	=2	=2	=2	=2	=2	=2
4.r	.	4C/	.	16r	.	(8gg\L	.
.	.	.	.	(16e-/LL	.	.	.
.	.	.	.	16g/	.	8ee-\	.
.	.	.	.	16e-/	.	.	.
.	.	8r	.	16g/	.	8cc\J)	.
.	.	.	.	16e-/JJ)	.	.	.
=3	=3	=3	=3	=3	=3	=3	=3
4.r	.	4D/	.	16r	.	8r	.
.	.	.	.	(16f/LL	.	.	.
.	.	.	.	16a-/	.	8bn'\L	.
.	.	.	.	16f/	.	.	.
.	.	8r	.	16bn/	.	8aa-'\J	.
.	.	.	.	16f/JJ)	.	.	.
=4	=4	=4	=4	=4	=4	=4	=4
4.r	.	4E-/	.	16r	.	(8gg\L	.
.	.	.	.	(16cc/LL	.	.	.
.	.	.	.	16g/	.	8ee-\)	.
.	.	.	.	16cc/	.	.	.
.	.	8r	.	16e-/	.	8cc'\J	.
.	.	.	.	16g/JJ)	.	.	.
=5	=5	=5	=5	=5	=5	=5	=5
4.r	.	4F/	.	16r	.	8r	.
.	.	.	.	(16a-/LL	.	.	.
.	.	.	.	16f/	.	8dd-'\L	.
.	.	.	.	16a-/	.	.	.
.	.	8r	.	16A-/	.	8dd-'\J	.
.	.	.	.	16a-/JJ)	.	.	.
=6	=6	=6	=6	=6	=6	=6	=6
4.r	.	(4F/	.	16r	.	(8dd-\L	.
.	.	.	.	(16a-/LL	.	.	.
.	.	.	.	16d/	.	8bn\	.
.	.	.	.	16a-/	.	.	.
.	.	8E-/)	.	16g/	.	8cc\J	.
.	.	.	.	16e-/JJ)	.	.	.
=7	=7	=7	=7	=7	=7	=7	=7
4.r	.	(4F/	.	16r	.	8dd-\L	.
.	.	.	.	(16a-/LL	.	.	.
.	.	.	.	16d/	.	8bn\	.
.	.	.	.	16a-/	.	.	.
.	.	8E-/)	.	16g/	.	8cc\J)	.
.	.	.	.	16e-/JJ)	.	.	.
=8	=8	=8	=8	=8	=8	=8	=8
4.r	.	(4.c\	.	16r	.	(4.ff#\	.
.	.	.	.	(16e-/LL	.	.	.
.	.	.	.	16an/	.	.	.
.	.	.	.	16e-/	.	.	.
.	.	.	.	16a/	.	.	.
.	.	.	.	16e-/JJ)	.	.	.
=9	=9	=9	=9	=9	=9	=9	=9
4.r	.	4.Bn/)	.	16r	.	4.ffn\)	.
.	.	.	.	(16d/LL	.	.	.
.	.	.	.	16a-/	.	.	.
.	.	.	.	16d/	.	.	.
.	.	.	.	16g/	.	.	.
.	.	.	.	16d/JJ)	.	.	.
=10	=10	=10	=10	=10	=10	=10	=10
4.r	.	4c\	.	16r	.	(8ee-\L	.
.	.	.	.	(16c/LL	.	.	.
.	.	.	.	16e-/	.	8gg\J)	.
.	.	.	.	16c/	.	.	.
.	.	8r	.	16g/	.	[8cc\	.
.	.	.	.	16e-/JJ)	.	.	.
=11	=11	=11	=11	=11	=11	=11	=11
4.r	.	4G/	.	16r	.	8cc\L]	.
.	.	.	.	(16e-/LL	.	.	.
.	.	.	.	16f/	.	8ddn\	.
.	.	.	.	16d/	.	.	.
.	.	8r	.	16g/	.	8bn\J	.
.	.	.	.	16f/JJ)	.	.	.
=12	=12	=12	=12	=12	=12	=12	=12
(4.C/	p	8C/L	.	16r	.	4cc\	.
.	.	.	.	(16e-/LL	.	.	.
.	.	8cc\	.	16g/	.	.	.
.	.	.	.	16e-/	.	.	.
.	.	8cc\J	.	16g/	.	8r	.
.	.	.	.	16e-/JJ)	.	.	.
=13	=13	=13	=13	=13	=13	=13	=13
4.D\)	.	(8cc\L	.	16r	.	4.r	.
.	.	.	.	(16f/LL	.	.	.
.	.	8b-\	.	16d/	.	.	.
.	.	.	.	16f/	.	.	.
.	.	8a-\J)	.	16B-/	.	.	.
.	.	.	.	16f/JJ)	.	.	.
=14	=14	=14	=14	=14	=14	=14	=14
4E-\	f	16g\LL	.	8e-/L	.	8r	.
.	.	(16e-\	f	.	.	.	.
.	.	16B-\	.	8b-'/	f	8bb-'\Lxx	f?
.	.	16e-\	.	.	.	.	.
!	!	!	!	!	!	!  Staccatos have been added to this movement when readily inferred from	!
!	!	!	!	!	!	!  neighboring tracks and parallel passages.	!
8r	.	16G\	.	8b-'/J	.	8bb-'\Jxx	.
.	.	16e-\JJ)	.	.	.	.	.
=15	=15	=15	=15	=15	=15	=15	=15
4BB-/	.	16r	.	(8b-/L	.	(8bb-\L	.
.	.	(16d\LL	.	.	.	.	.
.	.	16f\	.	8d/)	.	8dd\)	.
.	.	16B-\	.	.	.	.	.
8r	.	16f\	.	8d'/J	.	8dd'\J	.
.	.	16B-\JJ)	.	.	.	.	.
=16	=16	=16	=16	=16	=16	=16	=16
4C/	.	16r	.	8r	.	8r	.
.	.	(16G/LL	.	.	.	.	.
.	.	16c/	.	8e-'/L	.	8ee-'\L	.
.	.	16G/	.	.	.	.	.
8r	.	16c/	.	8e-'/J	.	8ee-'\J	.
.	.	16G/JJ)	.	.	.	.	.
=17	=17	=17	=17	=17	=17	=17	=17
4GG/	.	16r	.	(8e-/L	.	(8ee-\L	.
.	.	(16B-\LL	.	.	.	.	.
.	.	16g\	.	8B-/)	.	8b-\)	.
.	.	16e-\	.	.	.	.	.
8r	.	16b-\	.	8B-'/J	.	8b-'\J	.
.	.	16g\JJ)	.	.	.	.	.
=18	=18	=18	=18	=18	=18	=18	=18
(4F\	.	16r	.	8r	.	8r	.
.	.	(16d\LL	.	.	.	.	.
.	.	16f\	.	8A-'/L	.	8a-'/L	.
.	.	16d\	.	.	.	.	.
8E-\)	.	16f\	.	8A-'/J	.	8a-'/J	.
.	.	16c\JJ)	.	.	.	.	.
=19	=19	=19	=19	=19	=19	=19	=19
4.D\	.	16r	.	(8a-/L	.	(8aa-\L	.
.	.	(16B-\LL	.	.	.	.	.
.	.	16d\	.	8f/	.	8ff\	.
.	.	16B-\	.	.	.	.	.
.	.	16f\	.	8b-/J)	.	8bb-\J)	.
.	.	16B-\JJ)	.	.	.	.	.
=20	=20	=20	=20	=20	=20	=20	=20
(4E-\	.	16r	.	(8g/L	.	(8gg\L	.
.	.	(16B-\LL	.	.	.	.	.
.	.	16g\	.	8e-/	.	8ee-\	.
.	.	16e-\	.	.	.	.	.
8C/)	.	16c\	.	8a-/J)	.	8aa-\J)	.
.	.	16e-\JJ)	.	.	.	.	.
=21	=21	=21	=21	=21	=21	=21	=21
4.BB-/	.	16r	.	(4g/	.	(4gg\	.
.	.	(16B-\LL	.	.	.	.	.
.	.	16e-\	.	.	.	.	.
.	.	16B-\	.	.	.	.	.
.	.	16d\	.	8f/)	.	8ff\)	.
.	.	16B-\JJ)	.	.	.	.	.
=22	=22	=22	=22	=22	=22	=22	=22
[4.BB-/	p	(4.F/	p	16r	.	8r	.
.	.	.	.	(16B-/LL	p	.	.
.	.	.	.	16d/	.	(8f/L	p
.	.	.	.	16B-/	.	.	.
.	.	.	.	16f/	.	8b-/J)	.
.	.	.	.	16d/JJ)	.	.	.
=23	=23	=23	=23	=23	=23	=23	=23
4.BB-/_	.	4.E-/)	.	16r	.	(8a-/L	.
.	.	.	.	(16B-/LL	.	.	.
.	.	.	.	16e-/	.	8g-/)	.
.	.	.	.	16B-/	.	.	.
.	.	.	.	16e-/	.	8g-'/J	.
.	.	.	.	16B-/JJ)	.	.	.
=24	=24	=24	=24	=24	=24	=24	=24
4.BB-/_	.	[4.B-/	.	16r	.	8r	.
.	.	.	.	(16B-/LL	.	.	.
.	.	.	.	16g-/	.	(8b-/L	.
.	.	.	.	16B-/	.	.	.
.	.	.	.	16e-/	.	8g-/J)	.
.	.	.	.	16B-/JJ)	.	.	.
=25	=25	=25	=25	=25	=25	=25	=25
4.BB-/]	.	4.B-/]	.	16r	.	(8en/L	.
.	.	.	.	(16B-/LL	.	.	.
.	.	.	.	16d/	.	8f/)	.
.	.	.	.	16B-/	.	.	.
.	.	.	.	16d/	.	8f'/J	.
.	.	.	.	16B-/JJ)	.	.	.
=26	=26	=26	=26	=26	=26	=26	=26
8r	.	8r	.	8b-\	f	16r	.
.	.	.	.	.	.	(16gn\LL	f
8e-'\L	f	8g'\L	f	8r	.	16b-\	.
.	.	.	.	.	.	16ee-\	.
8e-'\J	.	8g'\J	.	8r	.	16gg\	.
.	.	.	.	.	.	16g\JJ)	.
=27	=27	=27	=27	=27	=27	=27	=27
(8d\L	.	(8f\L	.	8dd\	.	16r	.
.	.	.	.	.	.	(16b-\LL	.
8B-\)	.	8d\)	.	8r	.	16dd\	.
.	.	.	.	.	.	16ff\	.
8B-'\J	.	8d'\J	.	8r	.	16bb-\	.
.	.	.	.	.	.	16b-\JJ)	.
=28	=28	=28	=28	=28	=28	=28	=28
8r	.	8r	.	8g/	.	16r	.
.	.	.	.	.	.	(16e-/LL	.
8c'\L	.	8e-'\L	.	8r	.	16g/	.
.	.	.	.	.	.	16cc/	.
8c'\J	.	8e-'\J	.	8r	.	16ee-/	.
.	.	.	.	.	.	16e-/JJ)	.
=29	=29	=29	=29	=29	=29	=29	=29
(8B-\L	.	(8d\L	.	8b-\	.	16r	.
.	.	.	.	.	.	(16g\LL	.
8G\J)	.	8B-\J)	.	8r	.	16b-\	.
.	.	.	.	.	.	16dd\	.
8G'\xx	.	8B-'/xx	.	8r	.	16gg\	.
.	.	.	.	.	.	16g\JJ)	.
=30	=30	=30	=30	=30	=30	=30	=30
8r	.	8r	.	8e-/	.	16r	.
.	.	.	.	.	.	(16c/LL	.
8A-'\L	.	8c'\L	.	8r	.	16e-/	.
.	.	.	.	.	.	16a-/	.
8A-'\J	.	8c'\J	.	8r	.	16cc/	.
.	.	.	.	.	.	16c/JJ)	.
=31	=31	=31	=31	=31	=31	=31	=31
(8G\L	.	(8B-/L	.	8g/	.	16r	.
.	.	.	.	.	.	(16e-/LL	.
8E-\J)	.	8G/J)	.	8r	.	16g/	.
.	.	.	.	.	.	16b-/	.
8E-'\	.	8G'/	.	8r	.	16ee-/	.
.	.	.	.	.	.	16e-/JJ)	.
=32	=32	=32	=32	=32	=32	=32	=32
8A-\L	.	8c\L	.	16r	.	(16f/LL	.
.	.	.	.	16a-'/	.	16cc/JJ)	.
8B-\	.	8e-\J	.	16g'/LL	.	16b-'/LL	.
.	.	.	.	16f'/	.	16a-'/	.
8BB-\J	.	(16B-/LL	.	16e-'/	.	16g'/	.
.	.	16A-/JJ)	.	16d'/JJ	.	16f'/JJ	.
=33	=33	=33	=33	=33	=33	=33	=33
16r	.	8G'/xx	.	8e-'/xx	.	8e-'/	.
(16E-\LL	.	.	.	.	.	.	.
16G\	.	8r	.	8r	.	8r	.
16B-\	.	.	.	.	.	.	.
16G\	.	8r	.	8r	.	8r	.
16E-\JJ)	.	.	.	.	.	.	.
=34	=34	=34	=34	=34	=34	=34	=34
16r	.	8B-'/	p	8g'/	p	8dd-'\	p
(16E-\LL	p	.	.	.	.	.	.
16G\	.	8r	.	8r	.	8r	.
16B-\	.	.	.	.	.	.	.
16G\	.	8r	.	8r	.	8r	.
16E-\JJ)	.	.	.	.	.	.	.
=35	=35	=35	=35	=35	=35	=35	=35
16r	.	8c'\	.	8a-'/	.	8cc'\	.
(16E-\LL	.	.	.	.	.	.	.
16A-\	.	8r	.	8r	.	8r	.
16c\	.	.	.	.	.	.	.
16A-\	.	8r	.	8r	.	8r	.
16E-\JJ)	.	.	.	.	.	.	.
=36	=36	=36	=36	=36	=36	=36	=36
16r	.	8f'\	.	8dd'\	.	8aa-'\	.
(16E-\LL	.	.	.	.	.	.	.
16F\	.	8r	.	8r	.	8r	.
16A-\	.	.	.	.	.	.	.
16F\	.	8r	.	8r	.	8r	.
16E-\JJ)	.	.	.	.	.	.	.
=37	=37	=37	=37	=37	=37	=37	=37
16r	.	8B-'/	.	8ee-'\	.	8gg'\	.
(16E-\LL	.	.	.	.	.	.	.
16G\	.	8r	.	8r	.	8r	.
16B-\	.	.	.	.	.	.	.
16G\	.	8r	.	8r	.	8r	.
16E-\JJ)	.	.	.	.	.	.	.
=38	=38	=38	=38	=38	=38	=38	=38
16r	.	8g'\	.	8dd-'\	.	8bb-'\	.
(16E-\LL	.	.	.	.	.	.	.
16G\	.	8r	.	8r	.	8r	.
16B-\	.	.	.	.	.	.	.
16G\	.	8r	.	8r	.	8r	.
16E-\JJ)	.	.	.	.	.	.	.
=39	=39	=39	=39	=39	=39	=39	=39
16r	.	8e-'\	.	8cc'\	.	8aa-'\	.
(16E-\LL	.	.	.	.	.	.	.
16A-\	.	8r	.	8r	.	8r	.
16c\	.	.	.	.	.	.	.
16A-\	.	8r	.	8r	.	8r	.
16E-\JJ)	.	.	.	.	.	.	.
=40	=40	=40	=40	=40	=40	=40	=40
16r	.	8A-'/	.	8f'/	.	8ddn'\	.
(16E-\LL	.	.	.	.	.	.	.
16F\	.	8r	.	8r	.	8r	.
16A-\	.	.	.	.	.	.	.
16F\	.	8r	.	8r	.	8r	.
16E-\JJ)	.	.	.	.	.	.	.
=41	=41	=41	=41	=41	=41	=41	=41
4EE-/	.	8G/	.	8e-/	.	4ee-\	.
.	.	8e-'\L	.	8g'/L	.	.	.
8r	.	8e-'\J	.	8g'/J	.	8r	.
=42	=42	=42	=42	=42	=42	=42	=42
4.r	.	(8e-\L	f	(8g/L	f	4.r	.
.	.	8f\J)	.	8a-/J)	.	.	.
.	.	8d'\	p	8f'/	p	.	.
=43	=43	=43	=43	=43	=43	=43	=43
4.r	.	(8d\L	f	(8f/L	f	4.r	.
.	.	8e-\J)	.	8g/J)	.	.	.
.	.	8c'\	p	8e-'/	p	.	.
=44	=44	=44	=44	=44	=44	=44	=44
4.r	.	(8c\L	f	(8e-/L	f	4.r	.
.	.	8d\J)	.	8f/J)	.	.	.
.	.	8Bn'/xx	p	8d'/	p	.	.
=45:!!:	=45:!!:	=45:!!:	=45:!!:	=45:!!:	=45:!!:	=45:!!:	=45:!!:
*>B	*	*>B	*	*>B	*	*>B	*
8r	.	8c\	.	8c/	.	8r	.
8C'/Lxx	f	8c'\Lxx	f	8c'/Lxx	f	8c'/Lxx	f
8C'/J	.	8c'\J	.	8c'/Jxx	.	8c'/Jxx	.
=46	=46	=46	=46	=46	=46	=46	=46
(8C/L	.	(8c\L	.	(8c/L	.	(8c/L	.
8D-/)	.	8d-\)	.	8d-/)	.	8d-/)	.
8BB-'/J	.	8B-'\J	.	8B-'/J	.	8B-'/J	.
=47	=47	=47	=47	=47	=47	=47	=47
(8BB-/L	.	(8B-/L	.	(8B-/L	.	(8B-/L	.
8C/)	.	8c/)	.	8c/)	.	8c/)	.
8AA-'/J	.	8A-'/J	.	8A-'/J	.	8A-'/J	.
=48	=48	=48	=48	=48	=48	=48	=48
(8AA-/L	.	(8A-/L	.	(8A-/L	.	(8A-/L	.
8BB-/)	.	8B-/)	.	8B-/)	.	8B-/)	.
8GG'/J	.	8G'/J	.	8G'/J	.	8G'/J	.
=49	=49	=49	=49	=49	=49	=49	=49
4.AA-/	.	8A-/	.	16A-'/	.	8A-/	.
.	.	.	.	(16A-/LL	.	.	.
.	.	(8cc\L	.	16c/	.	8ee-'\L	.
.	.	.	.	16e-/	.	.	.
.	.	8a-\J)	.	16c/	.	8ee-'\J	.
.	.	.	.	16A-/JJ)	.	.	.
=50	=50	=50	=50	=50	=50	=50	=50
4.GG/	.	8r	.	16r	.	(8ee-\L	.
.	.	.	.	(16B-/LL	.	.	.
.	.	(8dd-\L	.	16d-/	.	8bb-\)	.
.	.	.	.	16e-/	.	.	.
.	.	8b-\J)	.	16d-/	.	8ee-'\J	.
.	.	.	.	16B-/JJ)	.	.	.
=51	=51	=51	=51	=51	=51	=51	=51
4.AA-/	.	8r	.	16r	.	(8ee-\L	.
.	.	.	.	(16A-/LL	.	.	.
.	.	(8a-\L	.	16c/	.	8ccc\)	.
.	.	.	.	16e-/	.	.	.
.	.	8cc\J)	.	16c/	.	8ee-'\J	.
.	.	.	.	16A-/JJ)	.	.	.
=52	=52	=52	=52	=52	=52	=52	=52
4.BB-/	.	8r	.	16r	.	(8ee-\L	.
.	.	.	.	(16G/LL	.	.	.
.	.	(8g\L	.	16B-/	.	8ddd-\J)	.
.	.	.	.	16e-/	.	.	.
.	.	8e-\J)	.	16B-/	.	8r	.
.	.	.	.	16G/JJ)	.	.	.
=53	=53	=53	=53	=53	=53	=53	=53
4.G\	.	8r	.	16r	.	8r	.
.	.	.	.	(16B-/LL	.	.	.
.	.	(8B-/L	.	16d-/	.	(8ddd-\L	.
.	.	.	.	16e-/	.	.	.
.	.	8G/J)	.	16d-/	.	8ee-\J)	.
.	.	.	.	16B-/JJ)	.	.	.
=54	=54	=54	=54	=54	=54	=54	=54
4.A-\	.	8r	.	16r	.	(8ee-\L	.
.	.	.	.	(16A-/LL	.	.	.
.	.	(8A-/L	.	16c/	.	8ccc\)	.
.	.	.	.	16e-/	.	.	.
.	.	8E-/J)	.	16c/	.	8ee-'\J	.
.	.	.	.	16A-/JJ)	.	.	.
=55	=55	=55	=55	=55	=55	=55	=55
4.E-\	.	8r	.	16r	.	(8ee-\L	.
.	.	.	.	(16G/LL	.	.	.
.	.	(8g\L	.	16B-/	.	8bb-\)	.
.	.	.	.	16e-/	.	.	.
.	.	8d-\J)	.	16B-/	.	8ee-'\J	.
.	.	.	.	16G/JJ)	.	.	.
=56	=56	=56	=56	=56	=56	=56	=56
4.AA-/	.	8c\L	.	16r	.	(8ee-\L	.
.	.	.	.	(16A-/LL	.	.	.
.	.	8e-\	.	16c/	.	8aa-\J)	.
.	.	.	.	16e-/	.	.	.
.	.	8a-\J	.	16c/	.	8r	.
.	.	.	.	16A-/JJ)	.	.	.
=57	=57	=57	=57	=57	=57	=57	=57
4.F\	.	16r	.	8r	.	8r	.
.	.	(16c\LL	.	.	.	.	.
.	.	16f\	.	8c'/L	.	(8cc\L	.
.	.	16a-\	.	.	.	.	.
.	.	16f\	.	8c'/J	.	8aa-\J)	.
.	.	16c\JJ)	.	.	.	.	.
=58	=58	=58	=58	=58	=58	=58	=58
4.En\	.	16r	.	(8c/L	.	8r	.
.	.	(16G/LL	.	.	.	.	.
.	.	16B-/	.	8g/J)	.	(8ccc\L	.
.	.	16c/	.	.	.	.	.
.	.	16B-/	.	8c'/	.	8gg\J)	.
.	.	16G/JJ)	.	.	.	.	.
=59	=59	=59	=59	=59	=59	=59	=59
4.F\	.	16r	.	(8c/L	.	8r	.
.	.	(16A-\LL	.	.	.	.	.
.	.	16c\	.	8a-/J)?	.	(8ccc\L	.
.	.	16f\	.	.	.	.	.
!	!	!	!	!  B&H has F4 here; cf. vn1, m51 and vc, m67.	!	!	!
.	.	16c\	.	8c'/	.	8aa-\J)	.
.	.	16A-\JJ)	.	.	.	.	.
=60	=60	=60	=60	=60	=60	=60	=60
4.G\	.	16r	.	(8c/L	.	8r	.
.	.	(16B-\LL	.	.	.	.	.
.	.	16en\	.	8b-/J)	.	(8bb-\L	.
.	.	16g\	.	.	.	.	.
.	.	16b-\	.	8r	.	8een\J)	.
.	.	16g\JJ)	.	.	.	.	.
=61	=61	=61	=61	=61	=61	=61	=61
4.En\	.	16r	.	8r	.	8r	.
.	.	(16c\LL	.	.	.	.	.
.	.	16en\	.	(8b-/L	.	(8gg\L	.
.	.	16g\	.	.	.	.	.
.	.	16e\	.	8c/J)	.	8bb-\J)	.
.	.	16c\JJ)	.	.	.	.	.
=62	=62	=62	=62	=62	=62	=62	=62
4.F\	.	16r	.	(8c/L	.	8r	.
.	.	(16c\LL	.	.	.	.	.
.	.	16f\	.	8a-/J)	.	(8ff\L	.
.	.	16a-\	.	.	.	.	.
.	.	16f\	.	8c'/	.	8aa-\J)	.
.	.	16c\JJ)	.	.	.	.	.
=63	=63	=63	=63	=63	=63	=63	=63
4.C/	.	16r	.	(8c/L	.	8r	.
.	.	(16B-\LL	.	.	.	.	.
.	.	16c\	.	8g/J)	.	(8een\L	.
.	.	16en\	.	.	.	.	.
.	.	16B-\	.	8c'/	.	8gg\J)	.
.	.	16c\JJ)	.	.	.	.	.
=64	=64	=64	=64	=64	=64	=64	=64
4.FF/	.	16r	.	(8c/L	.	8r	.
.	.	(16A-\LL	.	.	.	.	.
.	.	16c\	.	8f/J)	.	(8aa-\L	.
.	.	16f\	.	.	.	.	.
.	.	16c\	.	8r	.	8ff\J)	.
.	.	16A-\JJ)	.	.	.	.	.
=65	=65	=65	=65	=65	=65	=65	=65
8r	.	8G/	.	16r	.	16r	.
.	.	.	.	(16G/LL	.	(16g\LL	.
8GG'/Lxx	.	8r	.	16Bn/	.	16bn\	.
.	.	.	.	16d/	.	16dd\	.
8GG'/Jxx	.	8r	.	16g/	.	16gg\	.
.	.	.	.	16d/JJ)	.	16dd\JJ)	.
=66	=66	=66	=66	=66	=66	=66	=66
(8GG/L	.	(4.Bn/	.	16r	.	16r	.
.	.	.	.	(16G/LL	.	(16g\LL	.
8D/)	.	.	.	16Bn/	.	16bn\	.
.	.	.	.	16d/	.	16dd\	.
8GG'/J	.	.	.	16f/	.	16ff\	.
.	.	.	.	16d/JJ)	.	16dd\JJ)	.
=67	=67	=67	=67	=67	=67	=67	=67
(8GG/L	.	4.c\	.	16r	.	16r	.
.	.	.	.	(16G/LL	.	(16g\LL	.
8E-/)	.	.	.	16c/	.	16cc\	.
.	.	.	.	16e-/	.	16ee-\	.
8GG'/J	.	.	.	16g/	.	16gg\	.
.	.	.	.	16e-/JJ)	.	16ee-\JJ)	.
=68	=68	=68	=68	=68	=68	=68	=68
(8GG/L	.	4.d\	.	16r	.	16r	.
.	.	.	.	(16d/LL	.	(16dd\LL	.
8F/J)	.	.	.	16Bn/	.	16bn\	.
.	.	.	.	16d/	.	16dd\	.
8r	.	.	.	16G/	.	16g\	.
.	.	.	.	16B/JJ)	.	16b\JJ)	.
=69	=69	=69	=69	=69	=69	=69	=69
8r	.	4.Bn/	.	16r	.	16r	.
.	.	.	.	(16g/LL	.	(16gg\LL	.
(8F/L	.	.	.	16d/	.	16dd\	.
.	.	.	.	16g/	.	16gg\	.
8GG/J)	.	.	.	16Bn/	.	16bn\	.
.	.	.	.	16d/JJ)	.	16dd\JJ)	.
=70	=70	=70	=70	=70	=70	=70	=70
(8GG/L	.	4.c\	.	16r	.	16r	.
.	.	.	.	(16c/LL	.	(16cc\LL	.
8E-/)	.	.	.	16e-/	.	16ee-\	.
.	.	.	.	16g/	.	16gg\	.
8GG'/J	.	.	.	16e-/	.	16ee-\	.
.	.	.	.	16c/JJ)	.	16cc\JJ)	.
=71	=71	=71	=71	=71	=71	=71	=71
(8GG/L	.	4.Bn/)	.	16r	.	16r	.
.	.	.	.	(16f/LL	.	(16ff\LL	.
8D/)	.	.	.	16d/	.	16dd\	.
.	.	.	.	16Bn/	.	16bn\	.
8GG'/J	.	.	.	16G/	.	16g\	.
.	.	.	.	16f/JJ)	.	16ff\JJ)	.
=72	=72	=72	=72	=72	=72	=72	=72
(8GG/L	.	4c\	.	16r	.	16r	.
.	.	.	.	(16e-/LL	.	(16ee-\LL	.
8C/J)	.	.	.	16g/	.	16gg\	.
.	.	.	.	16e-/	.	16ee-\	.
8r	.	8r	.	16Bn/	.	16bn\	.
.	.	.	.	16c/JJ)	.	16cc\JJ)	.
=73	=73	=73	=73	=73	=73	=73	=73
4.AA-/	.	(8c\L	.	4.f#/	.	(8ee-\L	.
.	.	8d\	.	.	.	8dd\	.
.	.	8e-\J)	.	.	.	8cc\J)	.
=74	=74	=74	=74	=74	=74	=74	=74
4.AA-/	.	(8c\L	.	4.f#/	.	(8ee-\L	.
.	.	8d\	.	.	.	8dd\	.
.	.	8e-\J)	.	.	.	8cc\J)	.
=75	=75	=75	=75	=75	=75	=75	=75
8GG/L	.	(4.e-\	.	(4.f#/	.	(4.cc\	.
8GG/	.	.	.	.	.	.	.
8GG/J	.	.	.	.	.	.	.
=76	=76	=76	=76	=76	=76	=76	=76
8GG/	.	8d\)	.	8g/)	.	8bn\)	.
8r	.	8r	.	8r	.	8r	.
8r	.	8r	.	8r	.	8r	.
=77	=77	=77	=77	=77	=77	=77	=77
4.r	.	4C/	p	16r	.	8r	.
.	.	.	.	(16e-/LL	p	.	.
.	.	.	.	16g/	.	8gg'\L	p
.	.	.	.	16e-/	.	.	.
.	.	8r	.	16g/	.	8gg'\J	.
.	.	.	.	16e-/JJ)	.	.	.
=78	=78	=78	=78	=78	=78	=78	=78
4.r	.	4C/	.	16r	.	(8gg\L	.
.	.	.	.	(16e-/LL	.	.	.
.	.	.	.	16g/	.	8ee-\)	.
.	.	.	.	16e-/	.	.	.
.	.	8r	.	16g/	.	8cc'\J	.
.	.	.	.	16e-/JJ)	.	.	.
=79	=79	=79	=79	=79	=79	=79	=79
4.r	.	4D/	.	16r	.	8r	.
.	.	.	.	(16f/LL	.	.	.
.	.	.	.	16a-/	.	8bn'\L	.
.	.	.	.	16f/	.	.	.
.	.	8r	.	16bn/	.	8aa-'\J	.
.	.	.	.	16f/JJ)	.	.	.
=80	=80	=80	=80	=80	=80	=80	=80
4.r	.	4E-/	.	16r	.	(8gg\L	.
.	.	.	.	(16cc/LL	.	.	.
.	.	.	.	16g/	.	8ee-\)	.
.	.	.	.	16cc/	.	.	.
.	.	8r	.	16e-/	.	8cc'\J	.
.	.	.	.	16g/JJ)	.	.	.
=81	=81	=81	=81	=81	=81	=81	=81
4.r	.	4F/	.	16r	.	8r	.
.	.	.	.	(16a-/LL	.	.	.
.	.	.	.	16f/	.	8dd-'\L	.
.	.	.	.	16a-/	.	.	.
.	.	8r	.	16f/	.	8dd-'\J	.
.	.	.	.	16a-/JJ)	.	.	.
=82	=82	=82	=82	=82	=82	=82	=82
4.r	.	(4F/	.	16r	.	(8dd-\L	.
.	.	.	.	(16a-/LL	.	.	.
.	.	.	.	16d/	.	8bn\)	.
.	.	.	.	16a-/	.	.	.
.	.	8E-/)	.	16g/	.	8cc'\J	.
.	.	.	.	16e-/JJ)	.	.	.
=83	=83	=83	=83	=83	=83	=83	=83
4.r	.	(4F/	.	16r	.	(8dd-\L	.
.	.	.	.	(16a-/LL	.	.	.
.	.	.	.	16d/	.	8bn\)	.
.	.	.	.	16a-/	.	.	.
.	.	8E-/)	.	16g/	.	8cc'\J	.
.	.	.	.	16e-/JJ)	.	.	.
=84	=84	=84	=84	=84	=84	=84	=84
4.r	.	(4.c\	.	16r	.	(4.ff#\	.
.	.	.	.	(16e-/LL	.	.	.
.	.	.	.	16an/	.	.	.
.	.	.	.	16e-/	.	.	.
.	.	.	.	16a/	.	.	.
.	.	.	.	16e-/JJ)	.	.	.
=85	=85	=85	=85	=85	=85	=85	=85
4.r	.	4.Bn/)	.	16r	.	4.ffn\)	.
.	.	.	.	(16d/LL	.	.	.
.	.	.	.	16a-/	.	.	.
.	.	.	.	16d/	.	.	.
.	.	.	.	16g/	.	.	.
.	.	.	.	16d/JJ)	.	.	.
=86	=86	=86	=86	=86	=86	=86	=86
4.r	.	4c\	.	16r	.	(8ee-\L	.
.	.	.	.	(16c/LL	.	.	.
.	.	.	.	16e-/	.	8gg\J)	.
.	.	.	.	16c/	.	.	.
.	.	8r	.	16g/	.	[8cc\	.
.	.	.	.	16e-/JJ)	.	.	.
=87	=87	=87	=87	=87	=87	=87	=87
4.r	.	4G/	.	16r	.	(8cc\L]	.
.	.	.	.	(16e-/LL	.	.	.
.	.	.	.	16f/	.	8ddn\	.
.	.	.	.	16d/	.	.	.
.	.	8r	.	16g/	.	8bn\J)	.
.	.	.	.	16f/JJ)	.	.	.
=88	=88	=88	=88	=88	=88	=88	=88
4C/	f	16r	.	8e-'/L	.	8cc'\L	.
.	.	(16G/LL	f	.	.	.	.
.	.	16c/	.	8g'/	f	8gg'\	f
.	.	16e-/	.	.	.	.	.
8r	.	16c/	.	8g'/J	.	8gg'\J	.
.	.	16G/JJ)	.	.	.	.	.
=89	=89	=89	=89	=89	=89	=89	=89
4GG/	.	16r	.	(8g/L	.	(8gg\L	.
.	.	(16G\LL	.	.	.	.	.
.	.	16d\	.	8Bn/J)	.	8bn\J)	.
.	.	16g\	.	.	.	.	.
8r	.	16f\	.	8B'/	.	8b'\	.
.	.	16d\JJ)	.	.	.	.	.
=90	=90	=90	=90	=90	=90	=90	=90
4AA-/	.	16r	.	8r	.	8r	.
.	.	(16e-\LL	.	.	.	.	.
.	.	16c\	.	8cc'\L	.	8ccc'\L	.
.	.	16A-\	.	.	.	.	.
8r	.	16c\	.	8cc'\J	.	8ccc'\J	.
.	.	16e-\JJ)	.	.	.	.	.
=91	=91	=91	=91	=91	=91	=91	=91
4EE-/	.	16r	.	(8cc/L	.	(8ccc\L	.
.	.	(16G/LL	.	.	.	.	.
.	.	16c/	.	8g/J)	.	8gg\J)	.
.	.	16e-/	.	.	.	.	.
8r	.	16c/	.	8g'/xx	.	8gg'\xx	.
.	.	16G/JJ)	.	.	.	.	.
=92	=92	=92	=92	=92	=92	=92	=92
(4D\	.	16r	.	8r	.	8r	.
.	.	(16G/LL	.	.	.	.	.
.	.	16Bn/	.	8f'/L	.	8ff'\L	.
.	.	16G/	.	.	.	.	.
8C/)	.	16c/	.	8f'/J	.	8ff'\J	.
.	.	16A-/JJ)	.	.	.	.	.
=93	=93	=93	=93	=93	=93	=93	=93
4.BBn/	.	16r	.	(8f/L	.	(8ff\L	.
.	.	(16d/LL	.	.	.	.	.
.	.	16Bn/	.	8d/	.	8dd\	.
.	.	16d/	.	.	.	.	.
.	.	16G/	.	8g/J)	.	8gg\J)	.
.	.	16d/JJ)	.	.	.	.	.
=94	=94	=94	=94	=94	=94	=94	=94
(4C/	.	16r	.	(8e-/L	.	(8ee-\L	.
.	.	(16c/LL	.	.	.	.	.
.	.	16G/	.	8c/	.	8cc\	.
.	.	16e-/	.	.	.	.	.
8F\)	.	16d/	.	8f/J)	.	8ff\J)	.
.	.	16A-/JJ)	.	.	.	.	.
=95	=95	=95	=95	=95	=95	=95	=95
4.G\	.	16r	.	(4e-/	.	(4ee-\	.
.	.	(16G/LL	.	.	.	.	.
.	.	16c/	.	.	.	.	.
.	.	16G/	.	.	.	.	.
.	.	16Bn/	.	8d/)	.	8dd\)	.
.	.	16G/JJ)	.	.	.	.	.
=96	=96	=96	=96	=96	=96	=96	=96
[4.GG/	p	(4.D/	p	16r	.	8r	.
.	.	.	.	(16G/LL	p	.	.
.	.	.	.	16Bn/	.	(8d/L	p
.	.	.	.	16G/	.	.	.
.	.	.	.	16d/	.	8g/J)	.
.	.	.	.	16B/JJ)	.	.	.
=97	=97	=97	=97	=97	=97	=97	=97
4.GG/_	.	4.C/)	.	16r	.	(8f/L	.
.	.	.	.	(16G/LL	.	.	.
.	.	.	.	16c/	.	8e-/)	.
.	.	.	.	16G/	.	.	.
.	.	.	.	16c/	.	8e-'/J	.
.	.	.	.	16G/JJ)	.	.	.
=98	=98	=98	=98	=98	=98	=98	=98
4.GG/_	.	[4.G/	.	16r	.	8r	.
.	.	.	.	(16G/LL	.	.	.
.	.	.	.	16e-/	.	(8g/L	.
.	.	.	.	16G/	.	.	.
.	.	.	.	16c/	.	8e-/J)	.
.	.	.	.	16G/JJ)	.	.	.
=99	=99	=99	=99	=99	=99	=99	=99
4.GG/]	.	4.G/]	.	16r	.	(8c#/L	.
.	.	.	.	(16G/LL	.	.	.
.	.	.	.	16Bn/	.	8d/)	.
.	.	.	.	16G/	.	.	.
.	.	.	.	16B/	.	8d'/J	.
.	.	.	.	16G/JJ)	.	.	.
=100	=100	=100	=100	=100	=100	=100	=100
8r	.	8r	.	8g/	f	16r	.
.	.	.	.	.	.	(16e-/LL	f
8c'\L	f	8e-'\L	f	8r	.	16g/	.
.	.	.	.	.	.	16cc/	.
8c'\J	.	8e-'\J	.	8r	.	16ee-/	.
.	.	.	.	.	.	16e-/JJ)	.
=101	=101	=101	=101	=101	=101	=101	=101
(8B-\L	.	(8d\L	.	8b-\	.	16r	.
.	.	.	.	.	.	(16g\LL	.
8G\)	.	8B-\)	.	8r	.	16b-\	.
.	.	.	.	.	.	16dd\	.
8G'\J	.	8B-'\J	.	8r	.	16gg\	.
.	.	.	.	.	.	16g\JJ)	.
=102	=102	=102	=102	=102	=102	=102	=102
8r	.	8r	.	8e-/	.	16r	.
.	.	.	.	.	.	(16c/LL	.
8A-'\L	.	8c'\L	.	8r	.	16e-/	.
.	.	.	.	.	.	16a-/	.
8A-'\J	.	8c'\J	.	8r	.	16cc/	.
.	.	.	.	.	.	16c/JJ)	.
=103	=103	=103	=103	=103	=103	=103	=103
(8G\L	.	(8B-/L	.	8g/	.	16r	.
.	.	.	.	.	.	(16e-/LL	.
8E-\J)	.	8G/J)	.	8r	.	16g/	.
.	.	.	.	.	.	16b-/	.
8E-'\	.	8G'/	.	8r	.	16ee-/	.
.	.	.	.	.	.	16e-/JJ)	.
=104	=104	=104	=104	=104	=104	=104	=104
8r	.	8r	.	8c/	.	16r	.
.	.	.	.	.	.	(16A-/LL	.
8F'\L	.	8A-'/L	.	8r	.	16c/	.
.	.	.	.	.	.	16f/	.
8F'\J	.	8A-'/J	.	8r	.	16a-/	.
.	.	.	.	.	.	16A-/JJ)	.
=105	=105	=105	=105	=105	=105	=105	=105
(8E-\L	.	(8G/L	.	8e-/	.	16r	.
.	.	.	.	.	.	(16c/LL	.
8C\J)	.	8E-/J)	.	8r	.	16e-/	.
.	.	.	.	.	.	16g/	.
8C'/xx	.	8E-'/	.	8r	.	16cc/	.
.	.	.	.	.	.	16c/JJ)	.
=106	=106	=106	=106	=106	=106	=106	=106
8F\L	.	8r	.	16r	.	(16d/LL	.
.	.	.	.	16f'/xx	.	16a-/JJ)	.
8G\	.	8G'/L	.	16e-'/LL	.	16g'/LL	.
.	.	.	.	16d'/	.	16f'/	.
8GG\J	.	8G'/J	.	16c'/	.	16e-'/	.
.	.	.	.	16Bn'/JJ	.	16d'/JJ	.
=107	=107	=107	=107	=107	=107	=107	=107
16r	.	8E-'/	.	8c'/xx	.	8c'/xx	.
(16C\LL	.	.	.	.	.	.	.
16E-\	.	8r	.	8r	.	8r	.
16G\	.	.	.	.	.	.	.
16E-\	.	8r	.	8r	.	8r	.
16C\JJ)	.	.	.	.	.	.	.
=108	=108	=108	=108	=108	=108	=108	=108
16r	.	8en'\xx	p	8g'/xx	p	8b-'\	p
(16C\LL	p	.	.	.	.	.	.
16En\	.	8r	.	8r	.	8r	.
16G\	.	.	.	.	.	.	.
16E\	.	8r	.	8r	.	8r	.
16C\JJ)	.	.	.	.	.	.	.
=109	=109	=109	=109	=109	=109	=109	=109
16r	.	8c'\	.	8f'/	.	8a-'/	.
(16C\LL	.	.	.	.	.	.	.
16F\	.	8r	.	8r	.	8r	.
16A-\	.	.	.	.	.	.	.
16F\	.	8r	.	8r	.	8r	.
16C\JJ)	.	.	.	.	.	.	.
=110	=110	=110	=110	=110	=110	=110	=110
16r	.	8d'\	.	8bn'\	.	8ff'\	.
(16C\LL	.	.	.	.	.	.	.
16D\	.	8r	.	8r	.	8r	.
16F\	.	.	.	.	.	.	.
16D\	.	8r	.	8r	.	8r	.
16C\JJ)	.	.	.	.	.	.	.
=111	=111	=111	=111	=111	=111	=111	=111
16r	.	8G'/	.	8cc'\	.	8ee-'\	.
(16C\LL	.	.	.	.	.	.	.
16E-\	.	8r	.	8r	.	8r	.
16G\	.	.	.	.	.	.	.
16E-\	.	8r	.	8r	.	8r	.
16C\JJ)	.	.	.	.	.	.	.
=112	=112	=112	=112	=112	=112	=112	=112
16r	.	8g'\	.	8en'/	.	8bb-'\	.
(16C\LL	.	.	.	.	.	.	.
16En\	.	8r	.	8r	.	8r	.
16G\	.	.	.	.	.	.	.
16E\	.	8r	.	8r	.	8r	.
16C\JJ)	.	.	.	.	.	.	.
=113	=113	=113	=113	=113	=113	=113	=113
16r	.	8c'\	.	8f'/	.	8aa-'\	.
(16C\LL	.	.	.	.	.	.	.
16F\	.	8r	.	8r	.	8r	.
16A-\	.	.	.	.	.	.	.
16F\	.	8r	.	8r	.	8r	.
16C\JJ)	.	.	.	.	.	.	.
=114	=114	=114	=114	=114	=114	=114	=114
16r	.	8d'\	.	8f'/	.	8bn'\	.
(16C\LL	.	.	.	.	.	.	.
16D\	.	8r	.	8r	.	8r	.
16F\	.	.	.	.	.	.	.
16D\	.	8r	.	8r	.	8r	.
16C\JJ)	.	.	.	.	.	.	.
=115	=115	=115	=115	=115	=115	=115	=115
4CC/	.	8G\L	.	8e-/L	.	8cc'\	.
.	.	8e-'\xx	.	8g'/xx	.	8r	.
8r	.	8e-'\Jxx	.	8g'/Jxx	.	8r	.
=116	=116	=116	=116	=116	=116	=116	=116
4.r	.	(8e-\L	f	(8g/L	f	4.r	.
.	.	8f\J)	.	8a-/J)	.	.	.
.	.	8d'\	p	8f'/	p	.	.
=117	=117	=117	=117	=117	=117	=117	=117
4.r	.	(8d\L	f	(8f/L	f	4.r	.
.	.	8e-\J)	.	8g/J)	.	.	.
.	.	8c'\xx	p	8e-'/	p	.	.
=118	=118	=118	=118	=118	=118	=118	=118
4.r	.	(8c\L	f	(8e-/L	f	4.r	.
.	.	8d\J)	.	8f/J)	.	.	.
.	.	8Bn'/	p	8d'/	p	.	.
=119:|!	=119:|!	=119:|!	=119:|!	=119:|!	=119:|!	=119:|!	=119:|!
*>C	*	*>C	*	*>C	*	*>C	*
! Coda	!	! Coda	!	! Coda	!	! Coda	!
(4.C/xx	f	8c\L	f	16c/LL	f	8r	.
.	.	.	.	(16e-/	.	.	.
.	.	8g'\xx	.	16g/	.	8gg'\L	f
.	.	.	.	16e-/	.	.	.
.	.	8g'\Jxx	.	16g/	.	8gg'\J	.
.	.	.	.	16e-/JJ)	.	.	.
=120	=120	=120	=120	=120	=120	=120	=120
4.GG/	.	(8g\L	.	16r	.	(8gg\L	.
.	.	.	.	(16f/LL	.	.	.
.	.	8Bn\	.	16d/	.	8bn\	.
.	.	.	.	16f/	.	.	.
.	.	8d\J)	.	16d/	.	8dd\J)	.
.	.	.	.	16f/JJ)	.	.	.
=121	=121	=121	=121	=121	=121	=121	=121
4.EE-/	.	(8c\L	.	16r	.	(8cc\L	.
.	.	.	.	(16e-/LL	.	.	.
.	.	8e-\	.	16g/	.	8ee-\	.
.	.	.	.	16c/	.	.	.
.	.	8g\J)	.	16e-/	.	8gg\J)	.
.	.	.	.	16c/JJ)	.	.	.
=122	=122	=122	=122	=122	=122	=122	=122
4.GG/)	.	(8g\L	.	16r	.	(8gg\L	.
.	.	.	.	(16d/LL	.	.	.
.	.	8Bn\	.	16f/	.	8bn\	.
.	.	.	.	16d/	.	.	.
.	.	8d\J)	.	16g/	.	8dd\J)	.
.	.	.	.	16f/JJ)	.	.	.
=123	=123	=123	=123	=123	=123	=123	=123
4CC/	.	4c\	.	8e-/L	.	8cc/L	.
.	.	.	.	8e-/	p	8g/	p
8r	.	8r	.	8e-/J	.	8g/J	.
=124	=124	=124	=124	=124	=124	=124	=124
4.GG/	p	4.Bn/	p	(8e-/L	.	(8g/L	.
.	.	.	.	8f/	.	8a-/	.
.	.	.	.	8d/J)	.	8f/J)	.
=125	=125	=125	=125	=125	=125	=125	=125
[4.C/	.	(4.Bn/	.	(4.d/	.	(4.f/	.
=126	=126	=126	=126	=126	=126	=126	=126
8C/]	.	8c\)	.	8c/)	.	8e-/)	.
8r	.	8r	.	8r	.	8r	.
8r	.	8r	.	8r	.	8r	.
==|!	==|!	==|!	==|!	==|!	==|!	==|!	==|!
*-	*-	*-	*-	*-	*-	*-	*-
!!!RWG: Key is interpreted using the Humdrum key tool.
!!!AFT: stage2
!!!END: 1994/02/22
!!!KEY: 3699691340
!!!EMD: Converted from MuseData to Humdrum Dec 16, 2000, by Andreas Kornstaedt using muse2kern.
!!!EMD: Manual editing by Craig Sapp, Nov 2001
